build/img/svg/twiter.svg

<svg width="17" height="13" viewBox="0 0 17 13" fill="none" xmlns="http://www.w3.org/2000/svg">
<path d="M16.875 1.44644C16.2774 1.69086 15.6355 1.85602 14.9606 1.93067C15.6569 1.54605 16.1779 0.94071 16.4263 0.227595C15.772 0.586304 15.056 0.838796 14.3093 0.974094C13.8072 0.479202 13.1421 0.151179 12.4173 0.0409533C11.6925 -0.0692723 10.9486 0.0444662 10.301 0.36451C9.65345 0.684554 9.13845 1.193 8.83599 1.8109C8.53353 2.42881 8.46054 3.1216 8.62834 3.78172C7.30269 3.72028 6.00586 3.40223 4.82199 2.84821C3.63813 2.29418 2.59369 1.51657 1.75647 0.565832C1.47021 1.02166 1.3056 1.55015 1.3056 2.113C1.30528 2.61969 1.44046 3.11862 1.69913 3.56552C1.95781 4.01242 2.33199 4.39348 2.78847 4.67488C2.25907 4.65933 1.74135 4.52729 1.27841 4.28974V4.32937C1.27835 5.04003 1.54466 5.72881 2.03214 6.27886C2.51962 6.8289 3.19824 7.20632 3.95286 7.34708C3.46176 7.46977 2.94687 7.48784 2.4471 7.39993C2.66001 8.01141 3.07473 8.54612 3.63322 8.92921C4.19171 9.3123 4.866 9.5246 5.56169 9.53637C4.38072 10.3921 2.92222 10.8563 1.42082 10.8543C1.15487 10.8544 0.889137 10.84 0.625 10.8114C2.149 11.7159 3.92305 12.1959 5.73488 12.194C11.8682 12.194 15.2211 7.50497 15.2211 3.4382C15.2211 3.30608 15.2175 3.17263 15.2111 3.04051C15.8633 2.60514 16.4262 2.06603 16.8736 1.44842L16.875 1.44644Z" fill="white"/>
</svg>

<svg width="17" height="13" viewBox="0 0 17 13" fill="none" xmlns="http://www.w3.org/2000/svg"><path d="M16.875 1.446c-.598.245-1.24.41-1.914.485A3.142 3.142 0 0016.426.228a7.002 7.002 0 01-2.117.746 3.428 3.428 0 00-1.892-.933 3.578 3.578 0 00-2.116.324A3.194 3.194 0 008.836 1.81a2.861 2.861 0 00-.208 1.97 10.092 10.092 0 01-3.806-.933A9.368 9.368 0 011.756.566c-.286.456-.45.984-.45 1.547 0 .507.134 1.006.393 1.453.259.446.633.827 1.09 1.109a3.54 3.54 0 01-1.51-.385v.04c0 .71.266 1.399.753 1.949.488.55 1.166.927 1.92 1.068a3.63 3.63 0 01-1.505.053 3.1 3.1 0 001.186 1.53 3.52 3.52 0 001.929.606 7.054 7.054 0 01-4.141 1.318c-.266 0-.532-.014-.796-.043a10.01 10.01 0 005.11 1.383c6.133 0 9.486-4.689 9.486-8.756 0-.132-.004-.265-.01-.397a6.514 6.514 0 001.663-1.593l.001-.002z" fill="#fff"/></svg>
